X: 12605
T: Farewell To The Troubles Of The World
R: jig
M: 6/8
K: Gmajor
d|:gaf gfd|cBc dBG|BAB cBG|Bcd =f2 d|
gaf gfd|cBc dBG|BAB cdc|1 BGF G2d:|2 BGF G2 A||
|:BAG Bcd|=fge fdc|dba gaf|def g2 =f|
ede g=fd|cBc dBG|BAB cdc|1 BGF G2 A:|2 BGF G3||

